X: 32557
T: Planxty George Brabazon
R: reel
M: 4/4
K: Gmajor
ge|"G"d2G2 cBAG|d2G2 cBAG|"Am"e2A2 ABcd|e2A2 "D7"A2Bc|
"G"d2cB "C"g2fe|"G"edcB cBAG|BAGE "D"DEGA|"G"B2G2 G2:|
|:ga|"G"b2gb "D"a2fa|"Em"g2eg edcB|"Am"e2A2 ABcd|
[1 "D7"e2A2 A2ga|"G"b2gb "D"a2fa|"Em"g2eg edcB|"Am"cBAG "D7"DEGA|"G"B2G2 G2:|
[2 "D7"e2A2 A2Bc|"G"d2cB "C"g2fe|"G"edcB cBAG|BAGE "D"DEGA|"G"B2G2 G2||

